X:2283 
T:Yn colbagh breck er strap
T:The speckled heifer tethered 
N:?Car-y-Phoosee [A.W.Moore]
C:P.Cain, Baldwin
C:Traditional
O:Isle of Man
Z:Clague collection
B:Kiaull Vannin #283
N:See also KV61,327. 
M:6/8
L:1/4 
K:D 
dB/|AA/ DD/|EE/ FF/|GG/ AA/|d3/2 dB/|AA/ DD/|EE/ FA/|BA/ G/F/E/|D3/2||

